X: 25830
T: Master Crowley's
R: reel
M: 4/4
K: Ddorian
|:A,D (3DDD A,DFD|DCA,C G,CEC|A,D (3DDD A,DFD|EGcG EDDC|
A,D (3DDD A,DFD|DCA,C G,CEC|A,D (3DDD A,DFD|EGcG EDD2:|
|:Aa^ga efdf|ec (3ccc Gcec|Aa^ga efdB|cAGE EDD2|
Aa^ga efdf|ec (3ccc GcEc|DEFA GEcE|GEcE EDD2:|

